configs/marketplace-logos/swapr.svg

<svg xmlns="http://www.w3.org/2000/svg" fill="none" viewBox="0 0 512 512">
  <g clip-path="url(#swapr_svg__a)">
    <path fill="#fff" d="M0 0h512v512H0z"/>
    <g clip-path="url(#swapr_svg__b)">
      <mask id="swapr_svg__c" width="512" height="512" x="0" y="0" maskUnits="userSpaceOnUse" style="mask-type:luminance">
        <path fill="#fff" d="M512 0H0v512h512V0Z"/>
      </mask>
      <g mask="url(#swapr_svg__c)">
        <path fill="#000" fill-rule="evenodd" d="M0 345.012v-89.013C0 114.614 114.614 0 255.998 0 325.735 0 388.96 27.885 435.13 73.113l-54.422 34.006c-33.737-28.29-77.234-45.326-124.71-45.326-107.256 0-194.205 86.949-194.205 194.206h61.792L0 345.012Zm130.353 59.074c33.868 28.766 77.733 46.119 125.649 46.119 107.256 0 194.206-86.948 194.206-194.206h-61.793l123.58-90.482.005 90.482c0 141.384-114.614 256-255.998 256-70.17 0-133.745-28.232-179.989-73.958l54.34-33.955Zm223.852-63.122h-70.62l-27.583-37.26-27.583 37.26h-70.621l63.977-83.496-63.982-86.433h66.206l32.003 41.766 32.002-41.766h66.208l-63.984 86.433 63.977 83.496Z" clip-rule="evenodd"/>
      </g>
    </g>
  </g>
  <defs>
    <clipPath id="swapr_svg__a">
      <path fill="#fff" d="M0 0h512v512H0z"/>
    </clipPath>
    <clipPath id="swapr_svg__b">
      <path fill="#fff" d="M0 0h512v512H0z"/>
    </clipPath>
  </defs>
</svg>

<svg width="512" height="512" viewBox="0 0 512 512" fill="none" xmlns="http://www.w3.org/2000/svg">
<g clip-path="url(#clip0_1_15310)">
<rect width="512" height="512" fill="white"/>
<g clip-path="url(#clip1_1_15310)">
<mask id="mask0_1_15310" style="mask-type:luminance" maskUnits="userSpaceOnUse" x="0" y="0" width="512" height="512">
<path d="M512 0H0V512H512V0Z" fill="white"/>
</mask>
<g mask="url(#mask0_1_15310)">
<path fill-rule="evenodd" clip-rule="evenodd" d="M0 345.012V255.999C0 114.614 114.614 0 255.998 0C325.735 0 388.96 27.8849 435.13 73.113L380.708 107.119C346.971 78.8282 303.474 61.7927 255.998 61.7927C148.742 61.7927 61.7928 148.742 61.7928 255.999H123.585L0 345.012ZM130.353 404.086C164.221 432.852 208.086 450.205 256.002 450.205C363.258 450.205 450.208 363.257 450.208 255.999H388.415L511.995 165.517L512 255.999C512 397.383 397.386 511.999 256.002 511.999C185.832 511.999 122.257 483.767 76.0135 438.041L130.353 404.086ZM354.205 340.964H283.585L256.002 303.704L228.419 340.964H157.798L221.775 257.468L157.793 171.035H223.999L256.002 212.801L288.004 171.035H354.212L290.228 257.468L354.205 340.964Z" fill="black"/>
</g>
</g>
</g>
<defs>
<clipPath id="clip0_1_15310">
<rect width="512" height="512" fill="white"/>
</clipPath>
<clipPath id="clip1_1_15310">
<rect width="512" height="512" fill="white"/>
</clipPath>
</defs>
</svg>
